X:380
T:Champion March, The 
C:Joe Buchanan's Scottish Tome - Page 044.0
I:044 0
R:March
Z:Carl Allison
L:1/16
M:4/4
K:A=G
ec | A<AAB cBcd | (ef) (e2cA) | (ef) (e2cA) | (de) (d2BG) |
A<AAB cBcd | (ef) (e2cA) | (aecA) (ecdB) | {B}c2AA |]
((3efg) | (a2cA) (e2cA) | (gAcA) (e2cA) | (g2BG) (d2BG) | (gGBG) (d2BG) |
(a2cA) (e2cA) | (afdf) (e2cA) | (aecA) (ecdB) | (c2AA) |]
ec | A<AAB cBcd | (eagf eAcA) | (eagf eAcA) | (dgfe dGBG) |
A<AAB cBcd | (eagf eAcA) | aecA ecdB | {B}c2AA |]
(3efg | (aecA eAcA) | (aecA eAcA) | (gdBG dGBG) | (gdBG dGBG) |
(aecA eAcA) | (aedf eAcA) | (aecA ecdB) | {B}c2AA|]

